X: 21
T: No_18_Sun_Dance_Song_(a).krn
N: Derived from No_18_Sun_Dance_Song_(a).krn
%%abc-version 2.0
%%abcx-abcm2ps-target-version 5.9.1 (29 Sep 2008)
%%abc-creator hum2abc beta
%%abcx-conversion-date 2019/03/15 08:36:49
%%humdrum-veritas 1523562960
%%humdrum-veritas-data 3192623381
%%linebreak <none>
%%barnumbers 0
L: 1/8
M: 2/4
%%staves {1 2}
V: 1 clef=bass
V: 2 clef=bass
K: Db
[V:1] [K:clef=bass][M:2/4]B,2CB, | 
[V:2] [K:clef=bass][M:2/4]G,,G,, G,,G,, | 
[V:1] B,B,A,2 | 
[V:2] G,,G,, G,,G,, | 
[V:1] B,2B,A, | 
[V:2] z4 | 
[V:1] F,F,/E,/ B,,C,/B,,/ ||  
[V:2] z4 ||  
[V:1] [M:3/4]B,,6 ||  
[V:2] [M:3/4]z6 ||  
[V:1] [M:2/4]E,2G,E, | 
[V:2] [M:2/4]z4 | 
[V:1] D,E,D,2 | 
[V:2] z4 | 
[V:1] E,2E,D, | 
[V:2] z4 | 
[V:1] B,,3/B,,/B,,2 | 
[V:2] z4 | 
[V:1] !fermata!B,,4 | 
[V:2] z4 | 
[V:1] B,,B,,B,,2 | 
[V:2] z4 | 
[V:1] E,2E,D, | 
[V:2] z4 | 
[V:1] E,3//E,//D, B,,D,/B,,/ | 
[V:2] z4 | 
[V:1] B,,4 |]  
[V:2] z4 |]  



